X: 28
T:John McNeil
M:4/4
L:1/8
C:P. Milne
R:Reel
K:A
E|"A"A,2 CE FECE|"A"AECE FECE|"A"A,2 CE FECE|"D"FAGF "E"EDCB|!"A"A,2 CE
FECE
|"A"AECE FECA,|"D"B,DCE "Bm"DFEG|"E"FAGB "A"cAA:|!|:f|"A"eAfA eAca|"A"eA
fA e2 f/g/a|
"A"eAfA eAce|"D"dfca "E"B2f2|"A"eAfA eAca|"A"eAfA e2 e/f/g|"A"abag fedc|
1 "E"defg "A"a3:|
|2"D"BAGF "E"EDCB,||
